public/github.svg

<?xml version="1.0" encoding="UTF-8"?>
<!DOCTYPE svg PUBLIC "-//W3C//DTD SVG 1.1//EN" "http://www.w3.org/Graphics/SVG/1.1/DTD/svg11.dtd">
<svg xmlns="http://www.w3.org/2000/svg" version="1.1" width="256px" height="256px" style="shape-rendering:geometricPrecision; text-rendering:geometricPrecision; image-rendering:optimizeQuality; fill-rule:evenodd; clip-rule:evenodd" xmlns:xlink="http://www.w3.org/1999/xlink">
<g><path style="opacity:0.929" fill="#000000" d="M 111.5,-0.5 C 122.167,-0.5 132.833,-0.5 143.5,-0.5C 206.28,11.9467 243.613,49.6134 255.5,112.5C 255.5,122.833 255.5,133.167 255.5,143.5C 247.049,193.465 219.383,228.298 172.5,248C 162.906,251.314 153.239,253.814 143.5,255.5C 132.833,255.5 122.167,255.5 111.5,255.5C 57.4256,246.266 21.5923,215.599 4,163.5C 2.37825,156.724 0.878249,150.057 -0.5,143.5C -0.5,133.167 -0.5,122.833 -0.5,112.5C 11.3866,49.6134 48.7199,11.9467 111.5,-0.5 Z M 113.5,15.5 C 169.113,12.7078 208.613,36.3744 232,86.5C 248.545,135.511 238.045,177.678 200.5,213C 189.994,221.586 178.328,228.086 165.5,232.5C 165.667,220.162 165.5,207.829 165,195.5C 164.627,191.715 163.461,188.215 161.5,185C 199.016,173.15 215.183,147.65 210,108.5C 208.013,100.198 204.68,92.5318 200,85.5C 199.706,80.6692 199.873,75.8358 200.5,71C 200.444,63.8247 198.944,56.9914 196,50.5C 194.457,48.6217 192.624,47.1217 190.5,46C 185.096,45.2282 179.762,45.5615 174.5,47C 167.221,49.9728 160.221,53.4728 153.5,57.5C 136.159,52.297 118.826,52.297 101.5,57.5C 92.0005,50.832 81.5005,46.832 70,45.5C 61.8782,45.9504 57.2116,50.2838 56,58.5C 55.1443,62.6237 54.6443,66.7904 54.5,71C 56.9538,78.5769 55.7872,85.4102 51,91.5C 38.4176,118.633 41.5843,143.633 60.5,166.5C 69.6972,175.768 80.6972,181.935 93.5,185C 91.7625,188.879 90.4292,192.879 89.5,197C 84.0132,199.185 78.6799,198.851 73.5,196C 69.9496,192.117 66.7829,187.951 64,183.5C 57.8661,176.183 50.0327,172.85 40.5,173.5C 40.2913,178.623 40.958,183.623 42.5,188.5C 45.0876,189.194 47.421,190.36 49.5,192C 53.5938,197.517 57.9271,202.85 62.5,208C 70.7077,213.995 79.7077,216.162 89.5,214.5C 89.5,220.5 89.5,226.5 89.5,232.5C 52.2616,218.423 28.4282,192.089 18,153.5C 9.22232,99.5748 27.7223,58.0748 73.5,29C 86.271,22.428 99.6043,17.928 113.5,15.5 Z M 71.5,61.5 C 80.138,63.9855 88.138,67.8189 95.5,73C 97,73.1667 98.5,73.3333 100,73.5C 108.933,71.7335 117.933,70.4001 127,69.5C 137.828,71.0691 148.661,72.2358 159.5,73C 166.619,68.107 174.286,64.2737 182.5,61.5C 183.986,64.2834 184.653,67.2834 184.5,70.5C 183.402,76.8104 182.902,83.1438 183,89.5C 197.96,108.971 199.293,129.304 187,150.5C 173.087,165.203 155.921,172.87 135.5,173.5C 138.459,179.401 141.959,185.068 146,190.5C 147.275,192.717 148.275,195.051 149,197.5C 149.667,210.833 149.667,224.167 149,237.5C 141.963,238.986 134.796,239.653 127.5,239.5C 120.204,239.653 113.037,238.986 106,237.5C 105.333,224.167 105.333,210.833 106,197.5C 109.509,189.99 113.843,182.99 119,176.5C 119.483,175.552 119.649,174.552 119.5,173.5C 99.0795,172.87 81.9128,165.203 68,150.5C 55.7071,129.304 57.0404,108.971 72,89.5C 72.0983,83.1438 71.5983,76.8104 70.5,70.5C 70.669,67.4673 71.0023,64.4673 71.5,61.5 Z"/></g>
</svg>

<svg xmlns="http://www.w3.org/2000/svg" width="256" height="256" style="shape-rendering:geometricPrecision;text-rendering:geometricPrecision;image-rendering:optimizeQuality;fill-rule:evenodd;clip-rule:evenodd"><path d="M111.5-.5h32c62.78 12.447 100.113 50.113 112 113v31c-8.451 49.965-36.117 84.798-83 104.5-9.594 3.314-19.261 5.814-29 7.5h-32c-54.074-9.234-89.908-39.901-107.5-92a739.235 739.235 0 0 1-4.5-20v-31c11.887-62.887 49.22-100.553 112-113Zm2 16c55.613-2.792 95.113 20.874 118.5 71 16.545 49.011 6.045 91.178-31.5 126.5-10.506 8.586-22.172 15.086-35 19.5.167-12.338 0-24.671-.5-37-.373-3.785-1.539-7.285-3.5-10.5 37.516-11.85 53.683-37.35 48.5-76.5-1.987-8.302-5.32-15.968-10-23a76.417 76.417 0 0 1 .5-14.5c-.056-7.175-1.556-14.009-4.5-20.5a17.833 17.833 0 0 0-5.5-4.5 39.094 39.094 0 0 0-16 1 154.295 154.295 0 0 0-21 10.5c-17.341-5.203-34.674-5.203-52 0-9.5-6.668-20-10.668-31.5-12-8.122.45-12.788 4.784-14 13A73.866 73.866 0 0 0 54.5 71c2.454 7.577 1.287 14.41-3.5 20.5-12.582 27.133-9.416 52.133 9.5 75 9.197 9.268 20.197 15.435 33 18.5a63.398 63.398 0 0 0-4 12c-5.487 2.185-10.82 1.851-16-1a86.24 86.24 0 0 1-9.5-12.5c-6.134-7.317-13.967-10.65-23.5-10a43.51 43.51 0 0 0 2 15 19.218 19.218 0 0 1 7 3.5 234.947 234.947 0 0 0 13 16c8.208 5.995 17.208 8.162 27 6.5v18c-37.238-14.077-61.072-40.411-71.5-79C9.222 99.575 27.722 58.075 73.5 29c12.771-6.572 26.104-11.072 40-13.5Zm-42 46a79.72 79.72 0 0 1 24 11.5l4.5.5a283.429 283.429 0 0 1 27-4 444.551 444.551 0 0 0 32.5 3.5 92.855 92.855 0 0 1 23-11.5c1.486 2.783 2.153 5.783 2 9a101.473 101.473 0 0 0-1.5 19c14.96 19.471 16.293 39.804 4 61-13.913 14.703-31.079 22.37-51.5 23a114.251 114.251 0 0 0 10.5 17 32.5 32.5 0 0 1 3 7 400.05 400.05 0 0 1 0 40 94.163 94.163 0 0 1-21.5 2 94.163 94.163 0 0 1-21.5-2 400.05 400.05 0 0 1 0-40 105.276 105.276 0 0 1 13-21 4.934 4.934 0 0 0 .5-3c-20.42-.63-37.587-8.297-51.5-23-12.293-21.196-10.96-41.529 4-61 .098-6.356-.402-12.69-1.5-19a81.92 81.92 0 0 1 1-9Z" style="opacity:.929"/></svg>
